X:531
T: WENN DIE HOFFNUNG NICHT WAER
N: E1805
O: Europa, Mitteleuropa, Deutschland, Schwaben, Ulm
R: Moral - Lied
M: 3/4
L: 1/16
K: F
c2c2 | f4c4A4 | F8
A4 | B4G4c4 | A8
G2G2 | G4A4=B4 | c8
d2d2 | e4d4=B3c | c8
G3G | G4A4B4 | A8
A3A | A4=B4c4 | =B12- | B4z4
c3c | f4c4_e4 | d8
d2d2 | c4G4B4 | A8

@@@ Tune index: 5215
